Papirus/24x24/mimetypes/application-x-hda.svg

<svg width="24" height="24" version="1.1" xmlns="http://www.w3.org/2000/svg">
 <path d="m3.0039063 8.2186492c-0.00227 0.037376-0.00356 0.074809-0.0039 0.1122527v7.6399941c2.343e-4 0.797993 0.4353891 1.535271 1.1416015 1.934204l6.7167972 3.795491c0.706405 0.399212 1.576797 0.399212 2.283202 0l6.716794-3.795491c0.706513-0.399104 1.141715-1.136828 1.141599-1.935164v-7.6390341c-0.0011-0.028175-0.0027-0.056316-0.0049-0.08443 0.0049-8.767e-4 -17.991194-0.0278241-17.991194-0.0278241z" style="opacity:.2"/>
 <path d="m3.0039063 7.867772c-0.00227 0.037376-0.00356 0.074809-0.0039 0.1122527v7.6399943c2.343e-4 0.797992 0.4353891 1.535271 1.1416015 1.934204l6.7167972 3.795491c0.706405 0.399212 1.576797 0.399212 2.283202 0l6.716796-3.795491c0.706511-0.399105 1.141713-1.136828 1.141597-1.935164v-7.6390343c-0.0011-0.028175-0.0027-0.056316-0.0049-0.084429 0.0049-8.777e-4 -17.991194-0.0278251-17.991194-0.0278251z" style="fill:#c25824"/>
 <path d="m12.053752 2v9.825e-4a2.2845733 2.260639 0 0 0-1.196221 0.3009579l-6.7219027 3.8406667a2.2845733 2.260639 0 0 0-1.1356283 1.8125621 2.2845733 2.260639 0 0 0 1.1356283 1.8310162l6.7219027 3.8406666a2.2845733 2.260639 0 0 0 2.284938 0l6.721903-3.8406666a2.2845733 2.260639 0 0 0 1.135628-1.8125698 2.2845733 2.260639 0 0 0-1.135628-1.8310155l-6.721903-3.8406668a2.2845733 2.260639 0 0 0-1.088717-0.3019333z" style="fill:#f36128"/>
 <path d="m12.053438 2v0.00137a2.2845733 2.260639 0 0 0-1.195313 0.3001616l-6.721875 3.8404643a2.2845733 2.260639 0 0 0-1.13625 1.8133221 2.2845733 2.260639 0 0 0 0.0196873 0.1672151 2.2845733 2.260639 0 0 1 1.1165627-1.62966l6.721875-3.8404608a2.2845733 2.260639 0 0 1 1.195312-0.3001646v-0.00137a2.2845733 2.260639 0 0 1 1.088438 0.3015351l6.721875 3.8404603a2.2845733 2.260639 0 0 1 1.116562 1.6454221 2.2845733 2.260639 0 0 0 0.019688-0.1651589 2.2845733 2.260639 0 0 0-1.13625-1.8311404l-6.721875-3.8404608a2.2845733 2.260639 0 0 0-1.088437-0.3015351z" style="fill:#ffffff;opacity:.2"/>
 <path d="m3.0042188 7.8675987c-0.00149 0.024614-0.00216 0.049363-0.00281 0.074013a2.2845733 2.260639 0 0 1 0.00773-0.074013h-0.00492zm-0.00352 0.093887c-1.034e-4 0.0061639-6.431e-4 0.012339-6.988e-4 0.0185035v7.6398028c2.344e-4 0.797992 0.4356626 1.535689 1.141875 1.934621l6.71625 3.795231c0.363471 0.205409 0.736251 0.305451 1.141875 0.299479v-7.721354a2.2845733 2.260639 0 0 1-1.142578-0.30085l-6.7218751-3.8404606a2.2845733 2.260639 0 0 1-1.1348438-1.8249727z" style="opacity:.1"/>
 <path d="m3.0196875 7.7901591a2.2845733 2.260639 0 0 0-0.0196875 0.1651589 2.2845733 2.260639 0 0 0 1.13625 1.8311404l6.721875 3.8404606a2.2845733 2.260639 0 0 0 2.28375 0l6.721875-3.8404606a2.2845733 2.260639 0 0 0 1.13625-1.8133221 2.2845733 2.260639 0 0 0-0.01969-0.1672151 2.2845733 2.260639 0 0 1-1.116563 1.62966l-6.721874 3.8404608a2.2845733 2.260639 0 0 1-2.28375 0l-6.721873-3.8404608a2.2845733 2.260639 0 0 1-1.1165625-1.6454221z" style="opacity:.1"/>
 <path d="m16.149843 11.087372c-1.424234 0.810707-3.1718 1.279972-4.06012 1.40807-0.707278 0.101992-1.587111 0.112577-2.6277432-0.01707-0.8381916-0.47889-1.3589107-0.774748-1.8683186-1.068191 0.7723141 0.111861 1.7119505 0.216317 2.5891008 0.291473 1.244398 0.106622 3.11051-0.324115 4.535993-1.118542 0.09562-0.05326 0.190438-0.108763 0.284343-0.166322 2.140114-1.3121621 1.96039-3.1775927 0.200198-4.2405338-1.973131-1.1918695-4.611403-1.2456888-6.6984053 0.050267-1.4009422 0.8698681-1.794928 2.2556485-0.2943475 3.0755078 1.1795634 0.6445611 2.9236078 0.6956418 4.2683718-0.0547049 1.097112-0.6121954 0.815244-1.2892976 0.369749-1.5524123-0.423829-0.2503179-1.230899-0.4205832-1.996383-0.1220049-0.616007 0.2402712-0.80793 0.9714867 0.445017 1.0663365-0.528062 0.3401144-1.351193 0.4245116-1.9896066 0.0886228-1.246181-0.6558983-0.4703191-1.6719937 0.4573523-2.0783871 1.7141263-0.7510252 3.2109213-0.5195333 4.4743883 0.2430211 1.308067 0.7897046 1.213847 2.1979295-0.368204 3.1300978-1.251992 0.737572-2.984491 1.268854-5.5222749 0.63644-2.5377837-0.632415-3.181554-2.0229883-2.6785336-3.5065424 0.4087559-1.1622242 2.1511314-2.4477646 4.6327215-2.8220769 2.481591-0.3743126 4.468563-0.1070926 6.317214 1.0181046 2.613 1.5908201 2.63333 3.9721541-0.470513 5.7388477h1e-6" style="opacity:.2"/>
 <path d="m16.149843 10.736588c-1.424234 0.810707-3.1718 1.279972-4.06012 1.40807-0.888321 0.128098-2.064548 0.111671-3.4659348-0.145177l-1.8953305-1.082874c0.8397457 0.162047 2.2099068 0.327639 3.4543043 0.434262 1.244398 0.106622 3.11051-0.324115 4.535993-1.118542 0.09562-0.05326 0.190438-0.108763 0.284343-0.166321 2.140114-1.3121631 1.96039-3.1775936 0.200198-4.2405347-1.973131-1.1918695-4.611403-1.2456888-6.6984053 0.050267-1.4009422 0.8698681-1.794928 2.2556485-0.2943475 3.0755078 1.1795634 0.6445611 2.9236078 0.6956418 4.2683718-0.0547049 1.097112-0.6121955 0.815244-1.2892976 0.369749-1.5524123-0.423829-0.2503179-1.230899-0.4205832-1.996383-0.1220049-0.616007 0.2402712-0.80793 0.9714867 0.445017 1.0663365-0.528062 0.3401144-1.351193 0.4245116-1.9896066 0.0886228-1.246181-0.6558983-0.4703191-1.6719937 0.4573523-2.0783871 1.7141263-0.7510253 3.2109213-0.5195333 4.4743883 0.2430211 1.308067 0.7897046 1.213847 2.1979295-0.368204 3.1300979-1.251992 0.7375718-2.984491 1.2688538-5.5222749 0.6364398-2.5377837-0.6324148-3.181554-2.0229882-2.6785336-3.5065423 0.4087559-1.1622242 2.1511314-2.4477646 4.6327215-2.8220769 2.481591-0.3743126 4.468563-0.107093 6.317214 1.0181046 2.613 1.59082 2.63333 3.9721541-0.470513 5.7388476h1e-6" style="fill:#e4e4e4"/>
</svg>

<svg xmlns="http://www.w3.org/2000/svg" width="24" height="24" version="1.1">
 <path style="opacity:0.2" d="M 3.0039,8.2186 C 3.0016,8.256 3.0003,8.2935 3,8.3309 V 15.971 C 3.0002,16.769 3.4354,17.506 4.1416,17.905 L 10.858,21.701 C 11.565,22.1 12.435,22.1 13.142,21.701 L 19.858,17.905 C 20.565,17.506 21,16.768 21,15.97 V 8.3309 C 20.999,8.3027 20.997,8.2746 20.995,8.2465 21,8.2456 3.0039,8.2186 3.0039,8.2186 Z"/>
 <path style="fill:#c25824" d="M 3.0039,7.8678 C 3.0016,7.9051 3.0003,7.9426 3,7.98 V 15.62 C 3.0002,16.418 3.4354,17.155 4.1416,17.554 L 10.858,21.35 C 11.565,21.749 12.435,21.749 13.142,21.35 L 19.858,17.554 C 20.565,17.155 21,16.417 21,15.619 V 7.98 C 20.999,7.9518 20.997,7.9237 20.995,7.8956 21,7.8947 3.0039,7.8678 3.0039,7.8678 Z"/>
 <path style="fill:#f36128" d="M 12.054,2 V 2.001 A 2.2846,2.2606 0 0 0 10.858,2.3019 L 4.1356,6.1426 A 2.2846,2.2606 0 0 0 3,7.9552 2.2846,2.2606 0 0 0 4.1356,9.7862 L 10.858,13.627 A 2.2846,2.2606 0 0 0 13.142,13.627 L 19.864,9.7862 A 2.2846,2.2606 0 0 0 21,7.9736 2.2846,2.2606 0 0 0 19.864,6.1426 L 13.142,2.3019 A 2.2846,2.2606 0 0 0 12.054,2 Z"/>
 <path style="opacity:0.2;fill:#ffffff" d="M 12.053,2 V 2.0014 A 2.2846,2.2606 0 0 0 10.858,2.3015 L 4.1362,6.142 A 2.2846,2.2606 0 0 0 3,7.9553 2.2846,2.2606 0 0 0 3.0197,8.1225 2.2846,2.2606 0 0 1 4.1362,6.4929 L 10.858,2.6524 A 2.2846,2.2606 0 0 1 12.053,2.3522 V 2.3509 A 2.2846,2.2606 0 0 1 13.142,2.6524 L 19.864,6.4929 A 2.2846,2.2606 0 0 1 20.98,8.1383 2.2846,2.2606 0 0 0 21,7.9731 2.2846,2.2606 0 0 0 19.864,6.142 L 13.142,2.3015 A 2.2846,2.2606 0 0 0 12.053,2 Z"/>
 <path style="opacity:0.1" d="M 3.0042,7.8676 C 3.0027,7.8922 3.0021,7.917 3.0014,7.9416 A 2.2846,2.2606 0 0 1 3.0091,7.8676 Z M 3.0007,7.9615 C 3.0006,7.9676 3.0001,7.9738 3,7.98 V 15.62 C 3.0002,16.418 3.4357,17.155 4.1419,17.554 L 10.858,21.35 C 11.222,21.555 11.594,21.655 12,21.649 V 13.928 A 2.2846,2.2606 0 0 1 10.857,13.627 L 4.1355,9.7865 A 2.2846,2.2606 0 0 1 3.0007,7.9615 Z"/>
 <path style="opacity:0.1" d="M 3.0197,7.7902 A 2.2846,2.2606 0 0 0 3,7.9553 2.2846,2.2606 0 0 0 4.1363,9.7865 L 10.858,13.627 A 2.2846,2.2606 0 0 0 13.142,13.627 L 19.864,9.7865 A 2.2846,2.2606 0 0 0 21,7.9731 2.2846,2.2606 0 0 0 20.98,7.8059 2.2846,2.2606 0 0 1 19.864,9.4356 L 13.142,13.276 A 2.2846,2.2606 0 0 1 10.858,13.276 L 4.1363,9.4356 A 2.2846,2.2606 0 0 1 3.0197,7.7902 Z"/>
 <path style="opacity:0.2" d="M 16.15,11.087 C 14.726,11.898 12.978,12.367 12.09,12.495 11.382,12.597 10.503,12.608 9.462,12.478 8.6238,11.999 8.1031,11.704 7.5937,11.41 8.366,11.522 9.3056,11.626 10.183,11.702 11.427,11.808 13.293,11.378 14.719,10.583 14.814,10.53 14.909,10.474 15.003,10.417 17.143,9.1046 16.963,7.2392 15.203,6.1763 13.23,4.9844 10.592,4.9306 8.5049,6.2265 7.1039,7.0964 6.71,8.4822 8.2105,9.302 9.3901,9.9466 11.134,9.9977 12.479,9.2473 13.576,8.6351 13.294,7.958 12.849,7.6949 12.425,7.4446 11.618,7.2743 10.852,7.5729 10.236,7.8132 10.044,8.5444 11.297,8.6392 10.769,8.9794 9.9461,9.0638 9.3077,8.7279 8.0615,8.072 8.8374,7.0559 9.765,6.6495 11.479,5.8985 12.976,6.1299 14.239,6.8925 15.547,7.6822 15.453,9.0904 13.871,10.023 12.619,10.76 10.887,11.291 8.349,10.659 5.8112,10.027 5.1674,8.6361 5.6704,7.1525 6.0792,5.9903 7.8216,4.7047 10.303,4.3304 12.785,3.9561 14.772,4.2233 16.62,5.3485 19.233,6.9393 19.254,9.3207 16.15,11.087 V 11.087"/>
 <path style="fill:#e4e4e4" d="M 16.15,10.737 C 14.726,11.547 12.978,12.017 12.09,12.145 11.201,12.273 10.025,12.256 8.6238,11.999 L 6.7285,10.917 C 7.5682,11.079 8.9384,11.244 10.183,11.351 11.427,11.457 13.293,11.027 14.719,10.232 14.814,10.179 14.909,10.124 15.003,10.066 17.143,8.7538 16.963,6.8884 15.203,5.8255 13.23,4.6336 10.592,4.5798 8.5049,5.8757 7.1039,6.7456 6.71,8.1314 8.2105,8.9512 9.3901,9.5958 11.134,9.6469 12.479,8.8965 13.576,8.2843 13.294,7.6072 12.849,7.3441 12.425,7.0938 11.618,6.9235 10.852,7.2221 10.236,7.4624 10.044,8.1936 11.297,8.2885 10.769,8.6286 9.9461,8.713 9.3077,8.3771 8.0615,7.7212 8.8374,6.7051 9.765,6.2987 11.479,5.5477 12.976,5.7792 14.239,6.5417 15.547,7.3314 15.453,8.7396 13.871,9.6718 12.619,10.409 10.887,10.941 8.349,10.308 5.8112,9.6758 5.1674,8.2853 5.6704,6.8017 6.0792,5.6395 7.8216,4.3539 10.303,3.9796 12.785,3.6053 14.772,3.8725 16.62,4.9977 19.233,6.5886 19.254,8.9699 16.15,10.737 V 10.737"/>
</svg>
